X:0581
T:O he de No's
C:A Welch Tune.
M:C
L:1/8
Q:1/4=90 "Andante"
I: |: ::
Z:Jack Campin * www.campin.me.uk * 2009
K:A
  A2 F>A     (A/G/)(F/E/) E2 |A2  c>B A2  z
A|A2(F>A) ({A}G)(F/E/)    E2 |A2  c>B A3    ||
A|dcde     {g}fe/d/       c>e|dcBA    B>A G>E|
  A>GFA       GBGE           |d>c Bz  e>d cz |
  ff {g}fe/d/ ce         He2 |E2  c>B A3    :|
<end>
<start>
